X:1
T:Title
L:1/8
Q:1/4=100
M:4/4
K:C
V:1 treble nm="Grand Piano"
V:1
 cBA^G A2 AB | cBA^G A2 A2 | cBA^G A2 AA | BABA G^F G2 | BABA G2 G2 | BABA G2 G2 | AGAG F2 F2 | %7
w: ????~???? * * * * * *|||||||
 A2 FF E2 E2 | F2 E2- EE A2 | A2 cB/A/ B2 G2 | z G G2 D2 G2 | G2 BA/G/ A2 F2 | z F F2 F2 F2 | %13
w: ||||||
 F2 A2 GF E2 | F2 E2 F2 E2- |[M:9/8] E^GG BAG A3 |] %16
w: |||

